X:1
T:Tantum ergo
T:Giuseppe Pitoni abridged, edit BMarble
T:Tantum ergo
T:Copyright © 2015 by CPDL.  This edition can be fully distributed, duplicated, performed, and recorded. 
T:Copyright © 2015 by CPDL.  This edition can be fully distributed, duplicated, performed, and recorded. 
T:Copyright © 2015 by CPDL.  This edition can be fully distributed, duplicated, performed, and recorded. 
T:Copyright © 2015 by CPDL.  This edition can be fully distributed, duplicated, performed, and recorded. 
T:Copyright © 2015 by CPDL.  This edition can be fully distributed, duplicated, performed, and recorded. 
C:Giuseppe Pitoni
C:abridged, edit BMarble
Z:Copyright © 2015 by CPDL.  This edition can be fully distributed, duplicated, performed, and recorded.
Z:
%%score [ 1 2 3 4 ]
L:1/8
Q:1/2=100
M:4/2
K:C
V:1 treble nm="Soprano" snm="S."
V:2 treble nm="Alto" snm="A."
V:3 treble-8 transpose=-12 nm="Tenor" snm="T."
V:4 bass nm="Bass" snm="B."
V:1
 z4 G8 G4 | G4 G4 G4 c4 | c4 B4 c4 d4 | c4 B4 A6 A2 | G4 G2 G2 G4 c4 | B4 A4 G4 z4 | %6
w: Tan- tum-|er- go- Sa- cra-|men- tum- Ve- ne-|re- mur- cer- nu-|i,- ve- ne- re- mur-|cer- nu- i,-|
 z4 d2 c2 B4 B4 | A4 A4 B2 A2 G4- | G4 ^F4 G4 G4- | G2 A2 B4 c4 c4 | z4 A8 A4 | G6 G2 G4 G4- | %12
w: Et- an- ti- quum-|do- cu- men- * *|* * tum- No-|* * vo- ce- dat,-|ce- dat-|ri- tu- i.- Prae-|
 G4 G4 G4 B4 | c4 c8 B4 | c4 c8 _B4 | A4 d2 c2 B4 e2 d2 | c4 f2 e2 d6 d2 | c4 c8 _B4 | %18
w: * stet- fi- des-|sup- ple- men-|tum- Sen- su-|um- de- * * * *|* fe- * * ctu-|i,- sen- su-|
 A4 d2 c2 B4 e2 d2 | c4 f2 e2 d2 c2 d2 B2 |"^rit." c4 A4 G8- | G4 G4 G8 ||[M:3/2][Q:3/8=48] G8 G4 | %23
w: um- de- * * * *|* fe- * * * ctu- *|i, de- fe-|* ctu- i.-|Ge- ni-|
 G8 G4 | A8 F4 | E8 E4 | G8 G4 | A8 G4 | G8 G4 | G4 G4 A4 | B6 c2 d4 | c8 B4 | A8 A4 | G4 G4 G4 | %34
w: to- ri-|Ge- ni-|to- que-|Laus- et-|ju- bi-|la- ti-|o, laus et|ju- * *|* bi-|la- ti-|o. Sa- lus,-|
 G8 G4 | A8 G4 | G8 G4 | E6 F2 G4 | F8 C4 | F8 A4 | G8 G4 | G4 G4 G4 | G8 G4 | A8 G4 | G8 G4 | %45
w: ho- nor,-|vir- tus-|quo- que-|sit _ et-|be- *|* ne-|di- cti-|o:- Pro- ce-|den- ti-|ab- u-|tro- que-|
 E6 F2 G4 | F8 C4 | F8 A4 | G8 G4 | G4 z4 z4 | z4 c4 c4 | c8 _B4 | A4 c4 c4 | c8 _B4 | A4 F4 G4 | %55
w: com- * par-|sit- lau-|da- *|* ti-|o.-|A- men,-|a- *|men,- a- men,-|a- *|men,- a- *|
"^rit." A8 G4 | F4 A4 c4 | A12 | G12 |] %59
w: |men,- a- men,|a-|men.-|
V:2
 z4 E8 E4 | D4 D4 E2 F2 G2 A2 | G4 G4 z4 G2 G2 | ^F4 G4 G4 F4 | G4 D2 D2 E4 G4 | G4 ^F4 G4 F4- | %6
w: Tan- tum-|er- go- Sa- * cra\-- *|men- tum- Ve- ne-|re- mur- cer- nu-|i,- ve- ne- re- mur-|cer- nu- i,- Et|
 F4 ^F4 G4 G4 | E4 D4 D4 E4 | D8 D4 D4- | D4 D4 E4 G4 | A2 G2 =F2 E2 D4 D4 | D6 D2 D4 D4- | %12
w: _ an- ti- quum-|do- cu- men- *|* tum- No-|* vo- ce- dat,-|ce- * * * * dat-|ri- tu- i.- Prae-|
 D4 D4 E4 F4 | E2 F2 G2 A2 G6 F2 | E8 z4 G4- | G4 F2 E2 D4 G2 F2 | E4 C4 G6 G2 | G8 z4 G4- | %18
w: * stet- fi- des-|sup- * ple- * men- *|tum- Sen-|* su- * um de- *|* * fe- ctu-|i,- sen-|
 G4 F2 E2 D4 G2 F2 | E4 F8 G4- | G4 F2 E2 D4 E4 | D6 D2 E8 ||[M:3/2] E8 E4 | D8 E4 | C8 D4 | %25
w: * su- * um- de- *|* * fe-|* ctu- * i, de-|fe- ctu- i.-|Ge- ni-|to- ri-|Ge- ni-|
 B,8 B,4 | E8 E4 | C4 D4 E4 | D8 D4 | E4 D4 ^F4 | G6 A2 B4 | A8 G4 | G8 ^F4 | G4 D4 D4 | D8 E4 | %35
w: to- que-|Laus- et-|ju- * bi-|la- ti-|o, laus et|ju- * *|* bi-|la- ti-|o. Sa- lus,-|ho- nor,-|
 F4 E4 D4 | E8 E4 | C8 C4 | C4 D4 E4 | C8 F4 | D8 D4 | C4 E4 E4 | D8 E4 | F4 E4 D4 | E8 E4 | %45
w: vir- * tus-|quo- que|sit et-|be- * *|* ne-|di- cti-|o:- Pro- ce-|den- ti-|ab _ u-|tro- que-|
 C8 C4 | C4 D4 E4 | C8 F4 | D8 D4 | E4 F4 G4 | A2 G2 F4 C4 | C2 D2 E2 D2 E2 C2 | F4 C4 z4 | %53
w: com- par-|sit _ lau-|da- *|* ti-|o.- A- *|* * * men,-|a- * * * * *|* men,-|
 C2 D2 E2 D2 E2 C2 | F4 C4 E4 | F8 C4 | z4 F4 C4 | F8 D4 | E12 |] %59
w: a- * * * * *|* men, a-|* men,-|a- men,-|a- *|men.-|
V:3
 z4 c8 c4 | c4 B4 c6 A2 | d4 d4 c4 B4 | A4 G4 d6 d2 | B4 z4 z8 | z4 d2 d2 d4 d4 | d8 G4 B4 | %7
w: Tan- tum-|er- go- Sa- cra-|men- tum- Ve- ne-|re- mur- cer- nu-|i,-|Et- an- ti- quum,-|et an- quum-|
 c4 d4 B4 c4 | A8 G4 B2 A2 | G8 c8 | z4 c2 c2 c4 c4 | B6 B2 B4 B4- | B4 B4 c4 d4 | e4 e4 d8 | %14
w: do- cu- men- *|* tum- No- vo|ce- dat,-|no- vo- ce- dat-|ri- tu- i.- Prae-|* stet- fi- des-|sup- ple- men-|
 c4 G8 G4 | A8 B8 | c12 B4 | c4 G8 G4 | A8 B8 | c8 d8 | e4 c4 B4 c4- | c4 B4 c8 ||[M:3/2] c8 c4 | %23
w: tum- Sen- su-|um- de-|fe- ctu-|i,- sen- su-|um- de-|fe- ctu-|i, de- fe- *|* ctu- i.-|Ge- ni-|
 B8 c4 | A8 A4 | ^G8 G4 | c8 c4 | A4 B4 c4 | c8 B4 | c4 B4 A4 | G8 G4 | c8 ^c4 | d8 d4 | G4 B4 B4 | %34
w: to- ri-|Ge- ni-|to- que-|Laus- et-|ju- * bi-|la- ti-|o, laus et|ju- bi-|la- *|* ti-|o. Sa- lus,-|
 B8 c4 | c8 B4 | c8 c4 | G8 G4 | A4 B4 c4 | c12- | c8 B4 | c4 c4 c4 | B8 c4 | c8 B4 | c8 c4 | %45
w: ho- nor,-|vir- tus-|quo- que|sit et|be- * ne-|di-|* cti-|o:- Pro- ce-|den- ti-|ab- u-|tro- que-|
 G8 G4 | A4 B4 c4 | A2 G2 F4 c4 | c8 B4 | c4 c4 c4 | c4 A4 F4 | C4 c4 c4 | c4 A4 F4 | C4 c4 G4 | %54
w: com- par-|sit _ lau-|da- ti- o,- lau-|da- ti-|o.- A- men,-|a- * *|men,- a- men,-|a- * *|men,- a- men,-|
 A8 G4 | F4 A4 c4 | A4 F4 G4 | A8 F4 | c12 |] %59
w: a- *|men,- a- *|* * men,|a- *|men.-|
V:4
 z4 C,8 C,4 | G,4 G,4 C,2 D,2 E,2 F,2 | G,4 G,4 z8 | z16 | z4 B,,2 B,,2 C,4 E,4 | %5
w: Tan- tum-|er- go- Sa- * cra- *|men- tum-||Ve- ne- re- mur-|
 D,6 D,2 G,,4 D,4- | D,4 D,4 E,4 G,4 | G,4 ^F,4 G,4 C,4 | D,8 G,,8 | z8 z4 E,2 E,2 | %10
w: cer- nu- i,- Et|_ an- ti- quum-|do- cu- men- *|* tum-|No- vo-|
 F,4 F,4 ^F,4 F,4 | G,6 G,2 G,4 G,4- | G,4 =F,4 E,4 D,4 | C,2 D,2 E,2 F,2 G,8 | C,4 E,8 E,4 | %15
w: ce- dat,- ce- dat-|ri- tu- i.- Prae-|* stet- fi- des-|sup- * ple- * men-|tum- Sen- su-|
 F,8 G,8 | A,2 G,2 A,2 F,2 G,6 G,2 | C,4 E,8 E,4 | F,8 G,8 | A,2 G,2 A,2 F,2 B,2 A,2 B,2 G,2 | %20
w: um- de-|fe- * * * * ctu-|i, sen- su-|um- de-|fe- * * * * * ctu- *|
 C4 F,4 G,8- | G,4 G,4 C,8 ||[M:3/2] C,8 C,4 | G,8 E,4 | F,8 D,4 | E,8 E,4 | C,8 E,4 | F,8 C,4 | %28
w: i, de- fe-|* ctu- i.-|Ge- ni-|to- ri-|Ge- ni-|to- que-|Laus- et-|ju- bi-|
 G,8 G,4 | C,4 z4 z4 | z12 | z12 | z12 | z4 G,4 G,4 | G,4 F,4 E,4 | D,8 G,4 | C,8 C,4 | %37
w: la- ti-|o,-||||Sa- lus,-|ho- * nor,-|vir- tus-|quo- que-|
 C,4 D,4 E,4 | F,8 E,4 | F,2 G,2 A,4 F,4 | G,8 G,4 | C,4 C,4 C,4 | G,4 F,4 E,4 | D,8 G,4 | %44
w: sit _ et-|be- *|* * * ne-|di- cti-|o:- Pro- ce-|den- * ti-|ab- u-|
 C,8 C,4 | C,4 D,4 E,4 | F,8 E,4 | F,2 G,2 A,4 F,4 | G,8 G,4 | C,4 F,4 E,4 | %50
w: tro- que-|com- * par-|sit- lau-|da- ti- o,- lau-|da- ti-|o.- A- men,-|
 F,2 G,2 A,2 G,2 A,2 F,2 | E,4 C,4 E,4 | F,2 G,2 A,2 G,2 A,2 F,2 | E,4 C,4 E,4 | F,4 A,4 C4 | %55
w: a- * * * * *|* men, a-||* men, a-|men,- a- *|
 A,4 F,4 E,4 | F,8 E,4 | F,12 | C,12 |] %59
w: * * men,|a- men,-|a-|men.-|

